X:1
T:Title
%%score { ( 1 3 ) | 2 }
L:1/8
M:4/4
K:G
V:1 treble nm="Grand Piano"
V:3 treble 
V:2 bass 
V:1
 z4 z2[Q:1/4=90] DD | [B,G]2 [B,G]>[B,A] [CG][CF][CE][CD] | [DG]2 [DG]>A BABc | %3
 d>d [A^d][Ad] [Ge][Ge][GB][GB] | [EGd]>[EG^c] [^CGB][Gc] [Fd]2 DD | [EA]2 [Ec]>[DB] [DB][CA]EE | %6
 A2 [Fd]>[Ac] [Ac]BBB | ABAB ^cdFB |[M:7/8] [^CEA]>[B,CG][A,CF][K:bass] [G,CE]D- [A,D]2 | %9
[M:1/4][K:treble] [G,DG][DA] |[M:4/4] [DB]>[DB] _B=B c B2 [D_B] | [EG]>[EA] [EG]E D2 DD | %12
 DDFG A2 [F,D]2 |[M:9/8] [G,DG][G,DG]A B A2- ABc |[M:4/4] d2 d>e dBGA | B2 B>c BAGE | %16
 DDGB [=Fd]3 [Ec] |[M:7/8] [DB]>[Ec][DB] [CDA] [B,DG]3 |] %18
V:2
 z4 z2 D,D, | [G,,D,]2 [G,,D,]>[G,,D,] [A,,D,][A,,D,][A,,E,][A,,F,] | %2
 [B,,G,]2 [B,,G,]>[D,F,D] [G,D][D,F,D][K:treble][G,D][G,A,D] | %3
 [G,B,G]>[G,B,G][K:bass] [F,B,][F,B,] [E,B,][E,B,][E,E][E,E] | A,>A, A,,[A,,A,] [D,A,]2 D,D, | %5
 [C,G,]2 [E,^G,]>[E,G,] [A,,A,][A,,A,][A,C][G,A,C] | %6
 [F,A,D]2 [D,A,]>[D,D][K:treble] [G,D][G,DG][G,DG][^G,D=F] | %7
 [A,DF][A,DF][A,DF][A,DF] [A,DF][A,DF][A,D][A,DF] |[M:7/8][K:bass] A,,>A,,A,, A,,D, C,2 | %9
[M:1/4] B,,[A,,F,] |[M:4/4] [G,,G,]>[G,,G,] [G,^C][G,D] [G,E] [G,D]2 [B,,G,] | %11
 [C,G,]>[C,G,] [C,G,][E,G,C] [G,B,]2 [G,B,][G,B,] | [D,F,C][D,F,C][D,A,C][D,G,C] [D,F,C]2 D,C, | %13
[M:9/8] B,,B,,[D,F,D] [G,D] [D,F,D]2- [D,F,D][K:treble][G,D][A,D] | %14
[M:4/4] [G,B,G]2 [G,B,G]>[G,CG] [G,B,G][K:bass][G,D][G,B,][G,C] | %15
 [G,D]2 [G,D]>[G,E] [G,D][D,F,C][E,G,B,][C,G,C] | [G,B,][G,B,][G,B,][G,D] [B,,G,]3 [C,G,] | %17
[M:7/8] [D,G,]>[D,G,][D,G,] D, G,,3 |] %18
V:3
 x8 | x8 | x8 | x8 | x8 | x8 | x8 | x8 |[M:7/8] z z z2[K:bass] F, z2 |[M:1/4][K:treble] x2 | %10
[M:4/4] x8 | x8 | x8 |[M:9/8] x9 |[M:4/4] x8 | x8 | x8 |[M:7/8] x7 |] %18

